bernoullicharts/log_1_x_flajolet__bits.svg

<?xml version="1.0" encoding="utf-8" standalone="no"?>
<!DOCTYPE svg PUBLIC "-//W3C//DTD SVG 1.1//EN"
  "http://www.w3.org/Graphics/SVG/1.1/DTD/svg11.dtd">
<!-- Created with matplotlib (https://matplotlib.org/) -->
<svg height="345.6pt" version="1.1" viewBox="0 0 460.8 345.6" width="460.8pt" xmlns="http://www.w3.org/2000/svg" xmlns:xlink="http://www.w3.org/1999/xlink">
 <defs>
  <style type="text/css">
*{stroke-linecap:butt;stroke-linejoin:round;}
  </style>
 </defs>
 <g id="figure_1">
  <g id="patch_1">
   <path d="M 0 345.6 
L 460.8 345.6 
L 460.8 0 
L 0 0 
z
" style="fill:#ffffff;"/>
  </g>
  <g id="axes_1">
   <g id="patch_2">
    <path d="M 57.6 307.584 
L 414.72 307.584 
L 414.72 41.472 
L 57.6 41.472 
z
" style="fill:#ffffff;"/>
   </g>
   <g id="matplotlib.axis_1">
    <g id="xtick_1">
     <g id="line2d_1">
      <defs>
       <path d="M 0 0 
L 0 3.5 
" id="mef57a60ddf" style="stroke:#000000;stroke-width:0.8;"/>
      </defs>
      <g>
       <use style="stroke:#000000;stroke-width:0.8;" x="73.800255" xlink:href="#mef57a60ddf" y="307.584"/>
      </g>
     </g>
     <g id="text_1">
      <text style="font-family:DejaVu Sans;font-size:10px;font-style:normal;font-weight:normal;text-anchor:middle;" transform="rotate(-0, 73.800255, 322.182437)" x="73.800255" y="322.182437">0.0</text>
     </g>
    </g>
    <g id="xtick_2">
     <g id="line2d_2">
      <g>
       <use style="stroke:#000000;stroke-width:0.8;" x="138.744153" xlink:href="#mef57a60ddf" y="307.584"/>
      </g>
     </g>
     <g id="text_2">
      <text style="font-family:DejaVu Sans;font-size:10px;font-style:normal;font-weight:normal;text-anchor:middle;" transform="rotate(-0, 138.744153, 322.182437)" x="138.744153" y="322.182437">0.2</text>
     </g>
    </g>
    <g id="xtick_3">
     <g id="line2d_3">
      <g>
       <use style="stroke:#000000;stroke-width:0.8;" x="203.688051" xlink:href="#mef57a60ddf" y="307.584"/>
      </g>
     </g>
     <g id="text_3">
      <text style="font-family:DejaVu Sans;font-size:10px;font-style:normal;font-weight:normal;text-anchor:middle;" transform="rotate(-0, 203.688051, 322.182437)" x="203.688051" y="322.182437">0.4</text>
     </g>
    </g>
    <g id="xtick_4">
     <g id="line2d_4">
      <g>
       <use style="stroke:#000000;stroke-width:0.8;" x="268.631949" xlink:href="#mef57a60ddf" y="307.584"/>
      </g>
     </g>
     <g id="text_4">
      <text style="font-family:DejaVu Sans;font-size:10px;font-style:normal;font-weight:normal;text-anchor:middle;" transform="rotate(-0, 268.631949, 322.182437)" x="268.631949" y="322.182437">0.6</text>
     </g>
    </g>
    <g id="xtick_5">
     <g id="line2d_5">
      <g>
       <use style="stroke:#000000;stroke-width:0.8;" x="333.575847" xlink:href="#mef57a60ddf" y="307.584"/>
      </g>
     </g>
     <g id="text_5">
      <text style="font-family:DejaVu Sans;font-size:10px;font-style:normal;font-weight:normal;text-anchor:middle;" transform="rotate(-0, 333.575847, 322.182437)" x="333.575847" y="322.182437">0.8</text>
     </g>
    </g>
    <g id="xtick_6">
     <g id="line2d_6">
      <g>
       <use style="stroke:#000000;stroke-width:0.8;" x="398.519745" xlink:href="#mef57a60ddf" y="307.584"/>
      </g>
     </g>
     <g id="text_6">
      <text style="font-family:DejaVu Sans;font-size:10px;font-style:normal;font-weight:normal;text-anchor:middle;" transform="rotate(-0, 398.519745, 322.182437)" x="398.519745" y="322.182437">1.0</text>
     </g>
    </g>
    <g id="text_7">
     <text style="font-family:DejaVu Sans;font-size:10px;font-style:normal;font-weight:normal;text-anchor:middle;" transform="rotate(-0, 236.16, 335.860562)" x="236.16" y="335.860562">Probability</text>
    </g>
   </g>
   <g id="matplotlib.axis_2">
    <g id="ytick_1">
     <g id="line2d_7">
      <defs>
       <path d="M 0 0 
L -3.5 0 
" id="ma608787c4b" style="stroke:#000000;stroke-width:0.8;"/>
      </defs>
      <g>
       <use style="stroke:#000000;stroke-width:0.8;" x="57.6" xlink:href="#ma608787c4b" y="263.684232"/>
      </g>
     </g>
     <g id="text_8">
      <text style="font-family:DejaVu Sans;font-size:10px;font-style:normal;font-weight:normal;text-anchor:end;" transform="rotate(-0, 50.6, 267.483451)" x="50.6" y="267.483451">20</text>
     </g>
    </g>
    <g id="ytick_2">
     <g id="line2d_8">
      <g>
       <use style="stroke:#000000;stroke-width:0.8;" x="57.6" xlink:href="#ma608787c4b" y="218.521255"/>
      </g>
     </g>
     <g id="text_9">
      <text style="font-family:DejaVu Sans;font-size:10px;font-style:normal;font-weight:normal;text-anchor:end;" transform="rotate(-0, 50.6, 222.320474)" x="50.6" y="222.320474">40</text>
     </g>
    </g>
    <g id="ytick_3">
     <g id="line2d_9">
      <g>
       <use style="stroke:#000000;stroke-width:0.8;" x="57.6" xlink:href="#ma608787c4b" y="173.358279"/>
      </g>
     </g>
     <g id="text_10">
      <text style="font-family:DejaVu Sans;font-size:10px;font-style:normal;font-weight:normal;text-anchor:end;" transform="rotate(-0, 50.6, 177.157498)" x="50.6" y="177.157498">60</text>
     </g>
    </g>
    <g id="ytick_4">
     <g id="line2d_10">
      <g>
       <use style="stroke:#000000;stroke-width:0.8;" x="57.6" xlink:href="#ma608787c4b" y="128.195302"/>
      </g>
     </g>
     <g id="text_11">
      <text style="font-family:DejaVu Sans;font-size:10px;font-style:normal;font-weight:normal;text-anchor:end;" transform="rotate(-0, 50.6, 131.994521)" x="50.6" y="131.994521">80</text>
     </g>
    </g>
    <g id="ytick_5">
     <g id="line2d_11">
      <g>
       <use style="stroke:#000000;stroke-width:0.8;" x="57.6" xlink:href="#ma608787c4b" y="83.032326"/>
      </g>
     </g>
     <g id="text_12">
      <text style="font-family:DejaVu Sans;font-size:10px;font-style:normal;font-weight:normal;text-anchor:end;" transform="rotate(-0, 50.6, 86.831545)" x="50.6" y="86.831545">100</text>
     </g>
    </g>
    <g id="text_13">
     <text style="font-family:DejaVu Sans;font-size:10px;font-style:normal;font-weight:normal;text-anchor:middle;" transform="rotate(-90, 25.432812, 174.528)" x="25.432812" y="174.528">Average Bits Consumed Per Call</text>
    </g>
   </g>
   <g id="line2d_12">
    <path clip-path="url(#p68c0e689bb)" d="M 73.832727 294.909914 
L 77.112066 295.488 
L 80.391405 295.198957 
L 83.670744 295.28025 
L 86.950083 295.248636 
L 90.229421 295.248636 
L 93.50876 295.411223 
L 96.788099 294.882816 
L 100.067438 295.266701 
L 103.346777 295.104115 
L 106.626116 295.031854 
L 109.905455 294.833137 
L 113.184793 295.185408 
L 116.464132 295.00024 
L 119.743471 295.045403 
L 123.02281 294.376991 
L 126.302149 294.887332 
L 129.581488 294.530545 
L 132.860826 294.657001 
L 136.140165 294.733778 
L 139.419504 294.927979 
L 142.698843 294.959593 
L 145.978182 294.787974 
L 149.257521 294.986691 
L 152.53686 293.880198 
L 155.816198 294.458284 
L 159.095537 294.151176 
L 162.374876 294.273116 
L 165.654215 293.871165 
L 168.933554 294.39054 
L 172.212893 294.02472 
L 175.492231 294.065366 
L 178.77157 294.688615 
L 182.050909 293.311145 
L 185.330248 294.209888 
L 188.609587 293.767291 
L 191.888926 294.386023 
L 195.168264 293.798905 
L 198.447603 293.202753 
L 201.726942 293.97504 
L 205.006281 293.898263 
L 208.28562 293.026618 
L 211.564959 293.460182 
L 214.844298 292.660798 
L 218.123636 293.049199 
L 221.402975 293.013069 
L 224.682314 293.374373 
L 227.961653 292.850482 
L 231.240992 293.004036 
L 234.520331 292.710477 
L 237.799669 291.739473 
L 241.079008 292.579504 
L 244.358347 292.091744 
L 247.637686 292.254331 
L 250.917025 291.409783 
L 254.196364 291.382685 
L 257.475702 291.640114 
L 260.755041 292.457564 
L 264.03438 291.545272 
L 267.313719 290.822665 
L 270.593058 291.4143 
L 273.872397 291.753022 
L 277.151736 291.012349 
L 280.431074 291.391718 
L 283.710413 290.989768 
L 286.989752 290.583301 
L 290.269091 290.402649 
L 293.54843 290.190383 
L 296.827769 290.456844 
L 300.107107 289.007113 
L 303.386446 290.682659 
L 306.665785 289.648427 
L 309.945124 288.799363 
L 313.224463 289.765851 
L 316.503802 288.275473 
L 319.78314 288.38838 
L 323.062479 289.454226 
L 326.341818 288.239342 
L 329.621157 288.045141 
L 332.900496 284.825021 
L 336.179835 286.970263 
L 339.459174 286.175394 
L 342.738512 285.981193 
L 346.017851 285.068901 
L 349.29719 286.161845 
L 352.576529 286.87542 
L 355.855868 283.004953 
L 359.135207 285.005673 
L 362.414545 283.551425 
L 365.693884 281.121657 
L 368.973223 278.940285 
L 372.252562 281.239081 
L 375.531901 281.297793 
L 378.81124 278.709954 
L 382.090579 274.523346 
L 385.369917 276.040822 
L 388.649256 275.376927 
L 391.928595 266.529499 
L 395.207934 273.737511 
L 398.487273 53.568 
" style="fill:none;stroke:#1f77b4;stroke-linecap:square;stroke-width:1.5;"/>
   </g>
   <g id="patch_3">
    <path d="M 57.6 307.584 
L 57.6 41.472 
" style="fill:none;stroke:#000000;stroke-linecap:square;stroke-linejoin:miter;stroke-width:0.8;"/>
   </g>
   <g id="patch_4">
    <path d="M 414.72 307.584 
L 414.72 41.472 
" style="fill:none;stroke:#000000;stroke-linecap:square;stroke-linejoin:miter;stroke-width:0.8;"/>
   </g>
   <g id="patch_5">
    <path d="M 57.6 307.584 
L 414.72 307.584 
" style="fill:none;stroke:#000000;stroke-linecap:square;stroke-linejoin:miter;stroke-width:0.8;"/>
   </g>
   <g id="patch_6">
    <path d="M 57.6 41.472 
L 414.72 41.472 
" style="fill:none;stroke:#000000;stroke-linecap:square;stroke-linejoin:miter;stroke-width:0.8;"/>
   </g>
   <g id="text_14">
    <text style="font-family:DejaVu Sans;font-size:12px;font-style:normal;font-weight:normal;text-anchor:middle;" transform="rotate(-0, 236.16, 35.472)" x="236.16" y="35.472">Avg. Bits Consumed by log(1+x) (Flajolet) Algorithm</text>
   </g>
   <g id="legend_1">
    <g id="patch_7">
     <path d="M 64.6 64.150125 
L 187.696875 64.150125 
Q 189.696875 64.150125 189.696875 62.150125 
L 189.696875 48.472 
Q 189.696875 46.472 187.696875 46.472 
L 64.6 46.472 
Q 62.6 46.472 62.6 48.472 
L 62.6 62.150125 
Q 62.6 64.150125 64.6 64.150125 
z
" style="fill:#ffffff;opacity:0.8;stroke:#cccccc;stroke-linejoin:miter;"/>
    </g>
    <g id="line2d_13">
     <path d="M 66.6 54.570438 
L 86.6 54.570438 
" style="fill:none;stroke:#1f77b4;stroke-linecap:square;stroke-width:1.5;"/>
    </g>
    <g id="line2d_14"/>
    <g id="text_15">
     <text style="font-family:DejaVu Sans;font-size:10px;font-style:normal;font-weight:normal;text-anchor:start;" transform="rotate(-0, 94.6, 58.070438)" x="94.6" y="58.070438">log(1+x) (Flajolet)</text>
    </g>
   </g>
  </g>
 </g>
 <defs>
  <clipPath id="p68c0e689bb">
   <rect height="266.112" width="357.12" x="57.6" y="41.472"/>
  </clipPath>
 </defs>
</svg>

<svg height="460.8" viewBox="0 0 460.8 345.6" width="614.4" xmlns="http://www.w3.org/2000/svg" xmlns:xlink="http://www.w3.org/1999/xlink"><defs><style>*{stroke-linecap:butt;stroke-linejoin:round}</style></defs><g id="figure_1"><path d="M0 345.6h460.8V0H0z" fill="#fff" id="patch_1"/><g id="axes_1"><path d="M57.6 307.584h357.12V41.472H57.6z" fill="#fff" id="patch_2"/><g id="matplotlib.axis_1"><g id="xtick_1"><g id="line2d_1"><defs><path d="M0 0v3.5" id="mef57a60ddf" stroke="#000" stroke-width=".8"/></defs><use x="73.8" xlink:href="#mef57a60ddf" y="307.584" stroke="#000" stroke-width=".8"/></g><text x="73.8" y="322.182" font-family="DejaVu Sans" font-size="10" font-weight="400" text-anchor="middle" id="text_1">0.0</text></g><g id="xtick_2"><use x="138.744" xlink:href="#mef57a60ddf" y="307.584" stroke="#000" stroke-width=".8" id="line2d_2"/><text x="138.744" y="322.182" font-family="DejaVu Sans" font-size="10" font-weight="400" text-anchor="middle" id="text_2">0.2</text></g><g id="xtick_3"><use x="203.688" xlink:href="#mef57a60ddf" y="307.584" stroke="#000" stroke-width=".8" id="line2d_3"/><text x="203.688" y="322.182" font-family="DejaVu Sans" font-size="10" font-weight="400" text-anchor="middle" id="text_3">0.4</text></g><g id="xtick_4"><use x="268.632" xlink:href="#mef57a60ddf" y="307.584" stroke="#000" stroke-width=".8" id="line2d_4"/><text x="268.632" y="322.182" font-family="DejaVu Sans" font-size="10" font-weight="400" text-anchor="middle" id="text_4">0.6</text></g><g id="xtick_5"><use x="333.576" xlink:href="#mef57a60ddf" y="307.584" stroke="#000" stroke-width=".8" id="line2d_5"/><text x="333.576" y="322.182" font-family="DejaVu Sans" font-size="10" font-weight="400" text-anchor="middle" id="text_5">0.8</text></g><g id="xtick_6"><use x="398.52" xlink:href="#mef57a60ddf" y="307.584" stroke="#000" stroke-width=".8" id="line2d_6"/><text x="398.52" y="322.182" font-family="DejaVu Sans" font-size="10" font-weight="400" text-anchor="middle" id="text_6">1.0</text></g><text x="236.16" y="335.861" font-family="DejaVu Sans" font-size="10" font-weight="400" text-anchor="middle" id="text_7">Probability</text></g><g id="matplotlib.axis_2"><g id="ytick_1"><g id="line2d_7"><defs><path d="M0 0h-3.5" id="ma608787c4b" stroke="#000" stroke-width=".8"/></defs><use x="57.6" xlink:href="#ma608787c4b" y="263.684" stroke="#000" stroke-width=".8"/></g><text x="50.6" y="267.483" font-family="DejaVu Sans" font-size="10" font-weight="400" text-anchor="end" id="text_8">20</text></g><g id="ytick_2"><use x="57.6" xlink:href="#ma608787c4b" y="218.521" stroke="#000" stroke-width=".8" id="line2d_8"/><text x="50.6" y="222.32" font-family="DejaVu Sans" font-size="10" font-weight="400" text-anchor="end" id="text_9">40</text></g><g id="ytick_3"><use x="57.6" xlink:href="#ma608787c4b" y="173.358" stroke="#000" stroke-width=".8" id="line2d_9"/><text x="50.6" y="177.157" font-family="DejaVu Sans" font-size="10" font-weight="400" text-anchor="end" id="text_10">60</text></g><g id="ytick_4"><use x="57.6" xlink:href="#ma608787c4b" y="128.195" stroke="#000" stroke-width=".8" id="line2d_10"/><text x="50.6" y="131.995" font-family="DejaVu Sans" font-size="10" font-weight="400" text-anchor="end" id="text_11">80</text></g><g id="ytick_5"><use x="57.6" xlink:href="#ma608787c4b" y="83.032" stroke="#000" stroke-width=".8" id="line2d_11"/><text x="50.6" y="86.832" font-family="DejaVu Sans" font-size="10" font-weight="400" text-anchor="end" id="text_12">100</text></g><text transform="rotate(-90 25.433 174.528)" x="25.433" y="174.528" font-family="DejaVu Sans" font-size="10" font-weight="400" text-anchor="middle" id="text_13">Average Bits Consumed Per Call</text></g><path clip-path="url(#p68c0e689bb)" d="M73.833 294.91l3.28.578 3.278-.289 3.28.081 3.28-.031h3.278l3.28.162 3.28-.528 3.278.384 3.28-.163 3.28-.072 3.278-.199 3.28.352 3.28-.185 3.278.045 3.28-.668 3.28.51 3.278-.356 3.28.126 3.28.077 3.279.194 3.279.032 3.28-.172 3.279.199 3.279-1.107 3.28.578 3.279-.307 3.279.122 3.28-.402 3.279.52 3.279-.366 3.28.04 3.279.624 3.279-1.378 3.28.899 3.279-.443 3.279.619 3.28-.587 3.279-.596 3.279.772 3.28-.077 3.279-.871 3.279.433 3.28-.8 3.279.39 3.279-.037 3.28.361 3.279-.524 3.279.154 3.28-.294 3.279-.97 3.279.84 3.28-.488 3.279.162 3.279-.844 3.28-.027 3.279.257 3.279.818 3.28-.913 3.279-.722 3.28.591 3.278.339 3.28-.74 3.28.379 3.278-.402 3.28-.407 3.28-.18 3.278-.213 3.28.267 3.28-1.45 3.278 1.676 3.28-1.035 3.28-.849 3.278.967 3.28-1.49 3.28.112 3.278 1.066 3.28-1.215 3.28-.194 3.278-3.22 3.28 2.145 3.28-.795 3.279-.194 3.279-.912 3.28 1.093 3.279.713 3.279-3.87 3.28 2 3.279-1.454 3.279-2.43 3.28-2.18 3.279 2.298 3.279.059 3.28-2.588 3.279-4.187 3.279 1.518 3.28-.664 3.279-8.848 3.279 7.209 3.28-220.17" fill="none" stroke="#1f77b4" stroke-linecap="square" stroke-width="1.5" id="line2d_12"/><path d="M57.6 307.584V41.472" fill="none" stroke="#000" stroke-linecap="square" stroke-width=".8" id="patch_3"/><path d="M414.72 307.584V41.472" fill="none" stroke="#000" stroke-linecap="square" stroke-width=".8" id="patch_4"/><path d="M57.6 307.584h357.12" fill="none" stroke="#000" stroke-linecap="square" stroke-width=".8" id="patch_5"/><path d="M57.6 41.472h357.12" fill="none" stroke="#000" stroke-linecap="square" stroke-width=".8" id="patch_6"/><text x="236.16" y="35.472" font-family="DejaVu Sans" font-size="12" font-weight="400" text-anchor="middle" id="text_14">Avg. Bits Consumed by log(1+x) (Flajolet) Algorithm</text><g id="legend_1"><path d="M64.6 64.15h123.097q2 0 2-2V48.472q0-2-2-2H64.6q-2 0-2 2V62.15q0 2 2 2z" fill="#fff" opacity=".8" stroke="#ccc" id="patch_7"/><path d="M66.6 54.57h20" fill="none" stroke="#1f77b4" stroke-linecap="square" stroke-width="1.5" id="line2d_13"/><text x="94.6" y="58.07" font-family="DejaVu Sans" font-size="10" font-weight="400" id="text_15">log(1+x) (Flajolet)</text></g></g></g><defs><clipPath id="p68c0e689bb"><path d="M57.6 41.472h357.12v266.112H57.6z"/></clipPath></defs></svg>
